!!!COM: Haydn, Franz Joseph
!!!OTL: String Quartet in A Major
!!!OPS: Opus 20
!!!ONM: No. 6
!!!OMD: Adagio
!!!OMV: 2
!!!SCT: H III:36
!!!SCA: Thematisch-bibliographisches Werkevererzeichnis (A. van Hoboken)
!!!YOR: Richault Edition, volume 4
!!!ENC: Frances Bennion
!!!ENC: Harmonic analysis by Nestor Napoles
!!!CDT: 1732/3/31/-1809/5/31/
!!!CNT: Oesterreich
!!!YEC: Copyright (c) 1994, 2000 Center for Computer Assisted Research in the Humanities
!!!YEM: Rights to all derivative editions reserved.
!!!YEM: Refer to licensing agreement for further details.
!!!YEN: United States of America
**harm	**commentary	**kern	**kern	**kern	**kern
*k[f#c#g#d#a#]	*k[f#c#g#d#a#]	*k[f#c#g#d#a#]	*k[f#c#g#d#a#]	*k[f#c#g#d#a#]	*k[f#c#g#d#a#]
*B:	*B:	*B:	*B:	*B:	*B:
*	*	*clefF4	*clefC3	*clefG2	*clefG2
*M4/4	*M4/4	*M4/4	*M4/4	*M4/4	*M4/4
*staff1/2/3/4	*	*staff1	*staff2	*staff3	*staff4
I	.	4BB	8r	8r	2.f#
.	.	.	8F#	8d#	.
.	.	4D#	8r	8r	.
.	.	.	8F#	8f#	.
V7c	.	4C#	8r	8r	.
.	.	.	8A#	8e	.
V7	.	4FF#	8r	8r	4a#
.	.	.	8e	8c#	.
=2	=2	=2	=2	=2	=2
I	.	4BB	8r	8r	8b
.	.	.	8d#	8d#	8f#
.	.	4D#	8r	8r	2f#
.	.	.	8F#	8f#	.
V7c	.	4C#	8r	8r	.
.	.	.	8A#	8e	.
V7	.	4FF#	8r	8r	4a#
.	.	.	8e	8c#	.
=3	=3	=3	=3	=3	=3
I	.	4BB	4d#	4F#	16b
.	.	.	.	.	16a#
.	.	.	.	.	16cc#
.	.	.	.	.	16b
.	.	2.r	2.r	2.r	16dd#
.	.	.	.	.	16cc#
.	.	.	.	.	16b
.	.	.	.	.	16a#
.	.	.	.	.	16g#
.	.	.	.	.	16f#
.	.	.	.	.	16e
.	.	.	.	.	16d#
.	.	.	.	.	16c#
.	.	.	.	.	16B
.	.	.	.	.	16A#
.	.	.	.	.	16B
=4	=4	=4	=4	=4	=4
IV	.	4EE	4B	4e	4g#
I	.	4BB	4B	4d#	4f#
.	.	2r	2r	2r	2r
=5	=5	=5	=5	=5	=5
ii	.	4C#	8r	8r	[3..e
.	.	.	8G#	8e	.
IVc	.	4BB	8r	8r	.
.	.	.	8G#	8e	.
V7b	.	4AA#	8r	8r	.
.	.	.	.	.	24e]
.	.	.	8F#	8e	8e
V7	.	4FF#	8r	8r	8g#
.	.	.	8F#	8e	8e
=6	=6	=6	=6	=6	=6
I	.	4BB	8r	8r	[3..d#
.	.	.	8F#	8d#	.
iiic	.	4AA#	8r	8r	.
.	.	.	8F#	8d#	.
vi	.	4GG#	8r	8r	.
.	.	.	.	.	24d#]
.	.	.	8B	8d#	8d#
Ib	.	4DD#	8r	8r	8b
.	.	.	8F#	8B	8d#
=7	=7	=7	=7	=7	=7
iib	.	4EE	8r	8r	4.c#
.	.	.	8E	8G#	.
.	.	4EE	8r	8r	.
.	.	.	8E	8G#	16d#
.	.	.	.	.	16e
.	.	4EE	8r	8r	4G#
.	.	.	8E	8G#	.
V7	.	4FF#	8r	8r	4A#
.	.	.	8C#	8E	.
=8	=8	=8	=8	=8	=8
I	.	4BB	8r	8r	4B
.	.	.	8BB	8D#	.
IV	.	4EE	8r	8r	2.r
.	.	.	8G#	8B	.
Vb	.	4DD#	8r	8r	.
.	.	.	8F#	8B	.
viiob	.	4CC#	8r	8r	.
.	.	.	8E	8A#	.
=9	=9	=9	=9	=9	=9
I	.	4BBB	4D#	16r	2.f#
.	.	.	.	16B	.
.	.	.	.	16d#	.
.	.	.	.	16B	.
Ib	.	4D#	4B	16r	.
.	.	.	.	16F#	.
.	.	.	.	16f#	.
.	.	.	.	16d#	.
V7c	.	4C#	4A#	16r	.
.	.	.	.	16F#	.
.	.	.	.	16e	.
.	.	.	.	16c#	.
V7	.	4FF#	4e	16r	4a#
.	.	.	.	16c#	.
.	.	.	.	16e	.
.	.	.	.	16c#	.
=10	=10	=10	=10	=10	=10
I	.	4BBB	4d#	16r	8b
.	.	.	.	16F#	.
.	.	.	.	16d#	8f#
.	.	.	.	16B	.
Ib	.	4D#	4B	16r	2f#
.	.	.	.	16F#	.
.	.	.	.	16f#	.
.	.	.	.	16d#	.
V7c	.	4C#	4A#	16r	.
.	.	.	.	16F#	.
.	.	.	.	16e	.
.	.	.	.	16c#	.
V7	.	4FF#	4e	16r	4a#
.	.	.	.	16c#	.
.	.	.	.	16e	.
.	.	.	.	16c#	.
=11	=11	=11	=11	=11	=11
I	.	4BB	2d#	16r	2b
.	.	.	.	16F#	.
.	.	.	.	16d#	.
.	.	.	.	16B	.
.	.	4BB	.	16r	.
.	.	.	.	16F#	.
.	.	.	.	16d#	.
.	.	.	.	16B	.
V7/IV	.	4BB	2f#	16r	2a#
.	.	.	.	16F#	.
.	.	.	.	16d#	.
.	.	.	.	16B	.
.	.	4BB	.	16r	.
.	.	.	.	16F#	.
.	.	.	.	16d#	.
.	.	.	.	16B	.
=12	=12	=12	=12	=12	=12
IVc	.	4BB	2e	16r	2g#
.	.	.	.	16G#	.
.	.	.	.	16e	.
.	.	.	.	16B	.
.	.	4BB	.	16r	.
.	.	.	.	16G#	.
.	.	.	.	16e	.
.	.	.	.	16B	.
viio	Pedal E in the bass	4BB	2c#	16r	4.e
.	.	.	.	16A#	.
.	.	.	.	16e	.
.	.	.	.	16c#	.
.	.	4BB	.	16r	.
.	.	.	.	16A#	.
.	.	.	.	16e	16d#
.	.	.	.	16c#	16e
=13	=13	=13	=13	=13	=13
I	.	4BB	4d#	4B	8d#
.	.	.	.	.	16e
.	.	.	.	.	16f#
.	.	2.r	2.r	2.r	16g#
.	.	.	.	.	16a#
.	.	.	.	.	16b
.	.	.	.	.	16a#
.	.	.	.	.	16cc#
.	.	.	.	.	16b
.	.	.	.	.	16dd#
.	.	.	.	.	16cc#
.	.	.	.	.	16b
.	.	.	.	.	16d#
.	.	.	.	.	16e
.	.	.	.	.	16e#
=14	=14	=14	=14	=14	=14
Ic	.	2FF#	4B	4d#	8.f#
.	.	.	.	.	32e
.	.	.	.	.	32d#
V	.	.	4A#	4c#	8c#
.	.	.	.	.	3..r
.	.	4FF#	2r	16r	.
.	.	.	.	16A#	.
.	.	.	.	16c#	.
.	.	.	.	16F#	.
viiob/V	.	4GG#	.	16r	.
.	.	.	.	16B	.
.	.	.	.	16G#	.
.	.	.	.	16E#	.
.	.	.	.	.	24r
=15	=15	=15	=15	=15	=15
Vb	.	4AA#	2.F#	16F#	2.cc#
.	.	.	.	16F#	.
.	.	.	.	16c#	.
.	.	.	.	16A#	.
.	.	4AAA#	.	16c#	.
.	.	.	.	16A#	.
.	.	.	.	16B	.
.	.	.	.	16G#	.
.	.	4r	.	16A#	.
.	.	.	.	16F#	.
.	.	.	.	16G#	.
.	.	.	.	16E#	.
V+7b	.	4AA#	[4F#	16F#	4cc##
.	.	.	.	16G#	.
.	.	.	.	16F#	.
.	.	.	.	16E	.
=16	=16	=16	=16	=16	=16
I	.	4BB	4F#]	16D#	2.dd#
.	.	.	.	16B	.
.	.	.	.	16d#	.
.	.	.	.	16B	.
I+	.	4BBB	4F##	16d#	.
.	.	.	.	16B	.
.	.	.	.	16c#	.
.	.	.	.	16A#	.
vi	.	4r	4G#	16B	.
.	.	.	.	16G#	.
.	.	.	.	16A#	.
.	.	.	.	16F##	.
V7b/ii	.	4BB	4d#	16G#	4f#
.	.	.	.	16G#	.
.	.	.	.	16d#	.
.	.	.	.	16B	.
=17	=17	=17	=17	=17	=17
V/V	.	4C#	4c#	16r	4e#
.	.	.	.	16G#	.
.	.	.	.	16e#	.
.	.	.	.	16c#	.
.	.	4C#	4e#	16r	4cc#
.	.	.	.	16G#	.
.	.	.	.	16e#	.
.	.	.	.	16c#	.
viioD7/ii	Pedal F sharp in the bass	4C#	4f#	16r	4b#
.	.	.	.	16A	.
.	.	.	.	16f#	.
.	.	.	.	16d#	.
viio/IV	.	4C#	4A	16r	4f#
.	.	.	.	16A	.
.	.	.	.	16f#	.
.	.	.	.	16d#	.
=18	=18	=18	=18	=18	=18
V/V	.	4C#	4G#	16r	4e#
.	.	.	.	16G#	.
.	.	.	.	16e#	.
.	.	.	.	16c#	.
.	.	4C#	4e#	16r	4cc#
.	.	.	.	16G#	.
.	.	.	.	16e#	.
.	.	.	.	16c#	.
viioD7/ii	.	4C#	4f#	16r	4b#
.	.	.	.	16A	.
.	.	.	.	16f#	.
.	.	.	.	16d#	.
viio/IV	.	4C#	4A	16r	4f#
.	.	.	.	16A	.
.	.	.	.	16f#	.
.	.	.	.	16d#	.
=19	=19	=19	=19	=19	=19
V/V	.	4C#	4G#	16r	4e#
.	.	.	.	16G#	.
.	.	.	.	16e#	.
.	.	.	.	16c#	.
.	.	4C#	4e#	16r	4g#
.	.	.	.	16G#	.
.	.	.	.	16e#	.
.	.	.	.	16c#	.
V7/V	.	4C#	4e#	16r	4b
.	.	.	.	16G#	.
.	.	.	.	16e#	.
.	.	.	.	16c#	.
.	.	4C#	4e#	16r	4b
.	.	.	.	16G#	.
.	.	.	.	16e#	.
.	.	.	.	16c#	.
=20	=20	=20	=20	=20	=20
.	Dominant seventh of the dominant	4C#	4g#	4e#	6..b
.	.	2.r	2.r	2.r	.
.	.	.	.	.	24ee#
.	.	.	.	.	24gg#
.	.	.	.	.	24bb
.	.	.	.	.	24gg#
.	.	.	.	.	24ee#
.	.	.	.	.	8b
.	.	.	.	.	4.r
=21	=21	=21	=21	=21	=21
Vb	.	4AA#	2F#	16r	2ccc#
.	.	.	.	16F#	.
.	.	.	.	16f#	.
.	.	.	.	16c#	.
.	.	4AA#	.	16r	.
.	.	.	.	16F#	.
.	.	.	.	16f#	.
.	.	.	.	16c#	.
V7b	.	4AA#	2c#	16r	4.E
.	.	.	.	16F#	.
.	.	.	.	16e	.
.	.	.	.	16c#	.
.	.	4AA#	.	16r	.
.	.	.	.	16F#	.
.	.	.	.	16e	16F#
.	.	.	.	16c#	16E
=22	=22	=22	=22	=22	=22
I	.	4BB	4B	16r	4D#
.	.	.	.	16F#	.
.	.	.	.	16d#	.
.	.	.	.	16B	.
.	.	4BB	4B	16r	[6..dd#
.	.	.	.	16F#	.
.	.	.	.	16d#	.
.	.	.	.	16B	.
viiob	.	4BB	4B	4G#	.
.	.	.	.	.	48dd#]
.	.	.	.	.	16cc##
.	.	.	.	.	16dd#
.	.	.	.	.	16cc##
.	.	4r	4r	4r	16dd#
.	.	.	.	.	16cc##
.	.	.	.	.	16dd#
.	.	.	.	.	16ee#
=23	=23	=23	=23	=23	=23
(Ic)	.	1r	1r	1r	16ff#
.	.	.	.	.	16cc##
.	.	.	.	.	16dd#
.	.	.	.	.	16ee#
.	.	.	.	.	16ff#
.	.	.	.	.	16a#
.	.	.	.	.	16b
.	.	.	.	.	16cc#
.	.	.	.	.	16dd#
.	.	.	.	.	16f##
.	.	.	.	.	16g#
.	.	.	.	.	16a#
.	.	.	.	.	16b
.	.	.	.	.	16f##
.	.	.	.	.	16g#
.	.	.	.	.	16B#
=24	=24	=24	=24	=24	=24
Vc	.	4C#	4A#	16r	2c#
.	.	.	.	16A#	.
.	.	.	.	16f#	.
.	.	.	.	16c#	.
.	.	4C#	4f#	16r	.
.	.	.	.	16A#	.
.	.	.	.	16f#	.
.	.	.	.	16c#	.
V7/V	.	4C#	4G#	16r	2g#
.	.	.	.	16G#	.
.	.	.	.	16e#	.
.	.	.	.	16B	.
.	.	4C#	4e#	16r	.
.	.	.	.	16G#	.
.	.	.	.	16e#	.
.	.	.	.	16B	.
=25	=25	=25	=25	=25	=25
V	.	4FF#	4f#	16r	[2f#
.	.	.	.	16A#	.
.	.	.	.	16f#	.
.	.	.	.	16c#	.
V7b	.	4AA#	4e	16r	.
.	.	.	.	16F#	.
.	.	.	.	16e	.
.	.	.	.	16c#	.
I	.	4BB	4d#	4d#	16f#]
.	.	.	.	.	16cc##
.	.	.	.	.	16dd#
.	.	.	.	.	16b
V7/V	.	4C#	8r	8r	16a#
.	.	.	.	.	16g#
.	.	.	8G#	8B	16f#
.	.	.	.	.	16e#
=26	=26	=26	=26	=26	=26
V	.	4FF#	4F#	16r	[2f#
.	.	.	.	16A#	.
.	.	.	.	16f#	.
.	.	.	.	16c#	.
V+b	.	4AA#	4e	16r	.
.	.	.	.	16F#	.
.	.	.	.	16e	.
.	.	.	.	16c#	.
I	.	4BB	4d#	4d#	16f#]
.	.	.	.	.	16c##
.	.	.	.	.	16d#
.	.	.	.	.	16B
V7/V	.	4C#	8r	8r	16A#
.	.	.	.	.	16G#
.	.	.	8G#	8B	16F#
.	.	.	.	.	16E#
=27	=27	=27	=27	=27	=27
viio/V	Pedal B in the bass	[2FF#	2G#	2B	2E#
V	.	4FF#]	4F#	4A#	4F#
.	.	4r	4r	4r	4r
=28	=28	=28	=28	=28	=28
*	*	*	*	*	*
I	.	4BB	8r	8r	2.f#
.	.	.	8F#	8d#	.
.	.	4D#	8r	8r	.
.	.	.	8F#	8f#	.
viio	.	4C#	8r	8r	.
.	.	.	8A#	8e	.
V7	.	4FF#	8r	8r	4a#
.	.	.	8e	8c#	.
=29	=29	=29	=29	=29	=29
I	.	4BB	8r	8r	8b
.	.	.	8d#	8d#	8f#
.	.	4D#	8r	8r	4.f#
.	.	.	8F#	8f#	.
viio	.	4C#	8r	8r	.
.	.	.	8A#	8e	16ee
.	.	.	.	.	16dd#
V7	.	4FF#	8r	8r	16ee
.	.	.	.	.	16cc#
.	.	.	8e	8c#	16b
.	.	.	.	.	16a#
=30	=30	=30	=30	=30	=30
I	.	4BB	4d#	4F#	16b
.	.	.	.	.	16D#
.	.	.	.	.	16F#
.	.	.	.	.	16B
.	.	2.r	2.r	2.r	16d#
.	.	.	.	.	16f#
.	.	.	.	.	16b
.	.	.	.	.	16dd#
.	.	.	.	.	16ff#
.	.	.	.	.	16dd#
.	.	.	.	.	16cc#
.	.	.	.	.	16b
.	.	.	.	.	32a#
.	.	.	.	.	32b
.	.	.	.	.	32a#
.	.	.	.	.	32b
.	.	.	.	.	32a#
.	.	.	.	.	32b
.	.	.	.	.	32a#
.	.	.	.	.	32b
=31	=31	=31	=31	=31	=31
IV	.	4EE	4B	4e	4g#
I	.	4BB	4B	4d#	4f#
.	.	2r	2r	2r	2r
=32	=32	=32	=32	=32	=32
ii	.	4C#	8r	8r	[3..e
.	.	.	8G#	8e	.
IVc	.	4BB	8r	8r	.
.	.	.	8G#	8e	.
Vb	.	4AA#	8r	8r	.
.	.	.	.	.	24e]
.	.	.	8F#	8e	16cc#
.	.	.	.	.	16a#
V7	.	4AA#	8r	8r	16ee
.	.	.	.	.	16cc#
.	.	.	8F#	8e	16a#
.	.	.	.	.	16e
=33	=33	=33	=33	=33	=33
I	.	4BB	8r	8r	8e
.	.	.	8F#	8d#	8d#
iiic	.	4AA#	8r	8r	[6..d#
.	.	.	8F#	8d#	.
vi	.	4GG#	8r	8r	.
.	.	.	.	.	48d#]
.	.	.	.	.	32e
.	.	.	.	.	32f#
.	.	.	8B	8d#	32g#
.	.	.	.	.	32a#
.	.	.	.	.	32b
.	.	.	.	.	32cc#
Ib	.	4DD#	8r	8r	16dd#
.	.	.	.	.	16b
.	.	.	8F#	8B	16f#
.	.	.	.	.	16d#
=34	=34	=34	=34	=34	=34
iib	.	4EE	8r	8r	8c#
.	.	.	8G#	8c#	16d#
.	.	.	.	.	16e
.	.	4EE	8r	8r	8e
.	.	.	8G#	8c#	16f#
.	.	.	.	.	16g#
.	.	4EE	8r	8r	8g#
.	.	.	8G#	8c#	16G#
.	.	.	.	.	16e
V7	.	4FF#	8r	8r	8e
.	.	.	8C#	8E	16.c#
.	.	.	.	.	32A#
=35	=35	=35	=35	=35	=35
viio	Pedal E in the bass	[4BBB	4C#	4E	4A#
I	.	8BBB]	8BB	8D#	8B
.	.	8E	8G#	4r	3..r
Ib	.	4D#	4F#	.	.
.	.	.	.	8B	.
viiob	.	4C#	4E	8r	.
.	.	.	.	8A#	.
.	.	.	.	.	24r
=36	=36	=36	=36	=36	=36
I	.	4BB	4D#	16r	2.f#
.	.	.	.	16B	.
.	.	.	.	16d#	.
.	.	.	.	16F#	.
Ib	.	4D#	4B	16r	.
.	.	.	.	16F#	.
.	.	.	.	16f#	.
.	.	.	.	16d#	.
V7b	.	4C#	4A#	16r	.
.	.	.	.	16F#	.
.	.	.	.	16e	.
.	.	.	.	16c#	.
V7	.	4FF#	4e	16r	4a#
.	.	.	.	16c#	.
.	.	.	.	16e	.
.	.	.	.	16c#	.
=37	=37	=37	=37	=37	=37
I	.	4BB	4d#	16r	8b
.	.	.	.	16F#	.
.	.	.	.	16d#	8f#
.	.	.	.	16B	.
Ib	.	4D#	4B	16r	6..f#
.	.	.	.	16F#	.
.	.	.	.	16f#	.
.	.	.	.	16d#	.
V7b	.	4C#	4A#	16r	.
.	.	.	.	.	24a#
.	.	.	.	16F#	.
.	.	.	.	.	24cc#
.	.	.	.	16A#	24ee
.	.	.	.	.	24dd#
.	.	.	.	16c#	.
.	.	.	.	.	24cc#
V7	.	4FF#	4e	16r	24gg#
.	.	.	.	.	24ff#
.	.	.	.	16c#	.
.	.	.	.	.	24ee
.	.	.	.	16e	24cc#
.	.	.	.	.	24b
.	.	.	.	16c#	.
.	.	.	.	.	24a#
=38	=38	=38	=38	=38	=38
I	.	4BB	2d#	16r	2b
.	.	.	.	16F#	.
.	.	.	.	16d#	.
.	.	.	.	16B	.
.	.	4BB	.	16r	.
.	.	.	.	16F#	.
.	.	.	.	16d#	.
.	.	.	.	16B	.
V7/IV	.	4BB	2f#	16r	2aa
.	.	.	.	16F#	.
.	.	.	.	16d#	.
.	.	.	.	16B	.
.	.	4BB	.	16r	.
.	.	.	.	16F#	.
.	.	.	.	16d#	.
.	.	.	.	16B	.
=39	=39	=39	=39	=39	=39
IVc	.	4BB	2e	16r	2gg#
.	.	.	.	16G#	.
.	.	.	.	16e	.
.	.	.	.	16B	.
.	.	4BB	.	16r	.
.	.	.	.	16G#	.
.	.	.	.	16e	.
.	.	.	.	16B	.
viio	Pedal E in the bass	4BB	2c#	16r	2ee
.	.	.	.	16A#	.
.	.	.	.	16e	.
.	.	.	.	16c#	.
.	.	4BB	.	16r	.
.	.	.	.	16A#	.
.	.	.	.	16e	.
.	.	.	.	16c#	.
=40	=40	=40	=40	=40	=40
I	.	4BB	4d#	4B	16dd#
.	.	.	.	.	16ff#
.	.	.	.	.	16ee
.	.	.	.	.	16dd#
.	.	2r	2r	2r	16ee
.	.	.	.	.	16ff#
.	.	.	.	.	16gg#
.	.	.	.	.	16aa#
.	.	.	.	.	16b
.	.	.	.	.	16f#
.	.	.	.	.	16dd#
.	.	.	.	.	16b
.	.	4BB	4F#	8.d#	8.ff#
.	.	.	.	16B	16d#
=41	=41	=41	=41	=41	=41
Ic	.	4FF#	2F#	4B	4d#
V	.	4F#	.	4A#	4c#
.	.	4FF#	2r	16r	2r
.	.	.	.	16A#	.
.	.	.	.	16c#	.
.	.	.	.	16F#	.
viiob/V	.	4GG#	.	16r	.
.	.	.	.	16B	.
.	.	.	.	16G#	.
.	.	.	.	16E#	.
=42	=42	=42	=42	=42	=42
Vb	.	4AA#	2F#	16r	[2cc#
.	.	.	.	16F#	.
.	.	.	.	16c#	.
.	.	.	.	16A#	.
.	.	4AAA#	.	16c#	.
.	.	.	.	16A#	.
.	.	.	.	16B	.
.	.	.	.	16G#	.
.	.	4r	4r	16A#	16cc#]
.	.	.	.	16F#	16a#
.	.	.	.	16G#	16b
.	.	.	.	16E#	16g#
.	.	4AA#	[4F#	[4F#	16f#
.	.	.	.	.	16ff#
.	.	.	.	.	16f#
.	.	.	.	.	16ee
=43	=43	=43	=43	=43	=43
I	.	4BB	4F#]	16F#]	8cc##
.	.	.	.	16B	.
.	.	.	.	16d#	8dd#
.	.	.	.	16B	.
I+	.	4BBB	4F##	16d#	[6..dd#
.	.	.	.	16B	.
.	.	.	.	16c#	.
.	.	.	.	16A#	.
vi	.	4r	4G#	16B	.
.	.	.	.	.	48dd#]
.	.	.	.	16G#	16b
.	.	.	.	16A#	16bb
.	.	.	.	16F##	16bb
vib	.	4BB	4d#	16G#	16bb
.	.	.	.	16G#	16aa#
.	.	.	.	16d#	16gg#
.	.	.	.	16G#	16ff#
=44	=44	=44	=44	=44	=44
V/V	.	4C#	4c#	16r	4ee#
.	.	.	.	16G#	.
.	.	.	.	16e#	.
.	.	.	.	16c#	.
.	.	4C#	4e#	16r	4cc#
.	.	.	.	16G#	.
.	.	.	.	16e#	.
.	.	.	.	16c#	.
viioD7/ii	.	4C#	4f#	16r	4b#
.	.	.	.	16A	.
.	.	.	.	16f#	.
.	.	.	.	16d#	.
viio/IV	Pedal F in the bass	4C#	4A	16r	4f#
.	.	.	.	16A	.
.	.	.	.	16f#	.
.	.	.	.	16d#	.
=45	=45	=45	=45	=45	=45
V/V	.	4C#	4G#	16r	4e#
.	.	.	.	16G#	.
.	.	.	.	16e#	.
.	.	.	.	16c#	.
.	.	4C#	4e#	16r	4cc#
.	.	.	.	16G#	.
.	.	.	.	16e#	.
.	.	.	.	16c#	.
viioD7/ii	.	4C#	4f#	16r	8b#
.	.	.	.	16A	.
.	.	.	.	16f#	8aa
.	.	.	.	16d#	.
viio/IV	Pedal F in the bass	4C#	4A	16r	8gg#
.	.	.	.	16A	.
.	.	.	.	16f#	8ff#
.	.	.	.	16d#	.
=46	=46	=46	=46	=46	=46
V/V	.	4C#	4G#	16r	16ee#
.	.	.	.	16G#	16ff#
.	.	.	.	16e#	16gg#
.	.	.	.	16c#	16ee#
V7/V	.	4C#	4e#	16r	8b
.	.	.	.	16G#	.
.	.	.	.	16e#	8b
.	.	.	.	16c#	.
.	.	4C#	4e#	16r	[12..b
.	.	.	.	16G#	.
.	.	.	.	16e#	.
.	.	.	.	.	96b]
.	.	.	.	.	32cc#
.	.	.	.	16c#	32dd#
.	.	.	.	.	32cc#
.	.	4C#	4e#	16r	8b
.	.	.	.	16G#	.
.	.	.	.	16e#	8b
.	.	.	.	16c#	.
=47	=47	=47	=47	=47	=47
.	.	4C#	4g#	4e#	2.bb
.	.	2.r	2.r	2.r	.
.	.	.	.	.	4b
=48	=48	=48	=48	=48	=48
Vb	.	4AA#	2F#	16r	2ccc#
.	.	.	.	16F#	.
.	.	.	.	16f#	.
.	.	.	.	16c#	.
.	.	4AA#	.	16r	.
.	.	.	.	16F#	.
.	.	.	.	16f#	.
.	.	.	.	16c#	.
V7b	.	4AA#	2c#	16r	4.E
.	.	.	.	16F#	.
.	.	.	.	16e	.
.	.	.	.	16c#	.
.	.	4AA#	.	16r	.
.	.	.	.	16F#	.
.	.	.	.	16e	16F#
.	.	.	.	16c#	16E
=49	=49	=49	=49	=49	=49
I	.	4BB	4B	16r	4D#
.	.	.	.	16F#	.
.	.	.	.	16d#	.
.	.	.	.	16B	.
.	.	4BB	4B	16r	6..dd#
.	.	.	.	16F#	.
.	.	.	.	16d#	.
.	.	.	.	16B	.
viioD7d/iii	.	4BB	4B	4G#	.
.	.	.	.	.	24ee#
.	.	.	.	.	24cc##
.	.	.	.	.	24dd#
.	.	.	.	.	24ee#
.	.	.	.	.	24cc##
.	.	4r	4r	4r	24dd#
.	.	.	.	.	24ee#
.	.	.	.	.	24cc##
.	.	.	.	.	24dd#
.	.	.	.	.	24ff#
.	.	.	.	.	24ee#
=50	=50	=50	=50	=50	=50
(I)	.	1r	1r	1r	24ff#
.	.	.	.	.	24a#
.	.	.	.	.	24b
.	.	.	.	.	24cc#
.	.	.	.	.	24dd#
.	.	.	.	.	24ee#
.	.	.	.	.	24ff#
.	.	.	.	.	24f#
.	.	.	.	.	24g#
.	.	.	.	.	24a#
.	.	.	.	.	24b
.	.	.	.	.	24cc#
.	.	.	.	.	24dd#
.	.	.	.	.	24d#
.	.	.	.	.	24e#
.	.	.	.	.	24f#
.	.	.	.	.	24g#
.	.	.	.	.	24a#
.	.	.	.	.	24b
.	.	.	.	.	24a#
.	.	.	.	.	24g#
.	.	.	.	.	24f#
.	.	.	.	.	24e#
.	.	.	.	.	24d#
=51	=51	=51	=51	=51	=51
Vc	.	4C#	2A#	16r	16c#
.	.	.	.	16A#	16f#
.	.	.	.	16f#	16a#
.	.	.	.	16c#	16cc#
.	.	4C#	.	16r	16ff#
.	.	.	.	16A#	16aa#
.	.	.	.	16f#	16ccc#
.	.	.	.	16c#	16r
V7/V	.	4C#	4B	16r	2g#
.	.	.	.	16G#	.
.	.	.	.	16e#	.
.	.	.	.	16B	.
.	.	4C#	4E#	16r	.
.	.	.	.	16G#	.
.	.	.	.	16e#	.
.	.	.	.	16B	.
=52	=52	=52	=52	=52	=52
V	.	4FF#	4F#	16r	2.cc#
.	.	.	.	16A#	.
.	.	.	.	16f#	.
.	.	.	.	16c#	.
Vb	.	4AA#	4F#	16r	.
.	.	.	.	16c#	.
.	.	.	.	16cc#	.
.	.	.	.	16a#	.
V7c/V	.	4GG#	4E#	16r	.
.	.	.	.	16c#	.
.	.	.	.	16b	.
.	.	.	.	16g#	.
.	.	4CC#	4B	16r	4ee#
.	.	.	.	16c#	.
.	.	.	.	16b	.
.	.	.	.	16g#	.
=53	=53	=53	=53	=53	=53
V	.	4FF#	4A#	16r	8ff#
.	.	.	.	16c#	.
.	.	.	.	16a#	8cc#
.	.	.	.	16f#	.
Vb	.	4AA#	4F#	16r	2cc#
.	.	.	.	16c#	.
.	.	.	.	16cc#	.
.	.	.	.	16a#	.
V7c/V	.	4GG#	4E#	16r	.
.	.	.	.	16c#	.
.	.	.	.	16b	.
.	.	.	.	16g#	.
.	.	4C#	4B	16r	4ee#
.	.	.	.	16g#	.
.	.	.	.	16b	.
.	.	.	.	16g#	.
=54	=54	=54	=54	=54	=54
v	Minor fifth degree	4F#	4A	16r	[3..ff#
.	.	.	.	16c#	.
.	.	.	.	16a	.
.	.	.	.	16f#	.
.	.	4F#	4c#	16r	.
.	.	.	.	16c#	.
.	.	.	.	16a	.
.	.	.	.	16f#	.
.	.	4F#	2a	16r	.
.	.	.	.	16c#	.
.	.	.	.	.	24ff#]
.	.	.	.	16a	8ee
.	.	.	.	16f#	.
.	.	4F#	.	16r	8dd#
.	.	.	.	16c#	.
.	.	.	.	16a	8cc#
.	.	.	.	16f#	.
=55	=55	=55	=55	=55	=55
*	*	*	*	*	*
V7d/ii	.	4F#	4g#	16r	1b#
.	.	.	.	16d#	.
.	.	.	.	16g#	.
.	.	.	.	16G#	.
.	.	4F#	4d#	16r	.
.	.	.	.	16d#	.
.	.	.	.	16g#	.
.	.	.	.	16G#	.
.	.	4F#	4B#	16r	.
.	.	.	.	16d#	.
.	.	.	.	16g#	.
.	.	.	.	16G#	.
.	.	4F#	4G#	16r	.
.	.	.	.	16d#	.
.	.	.	.	16g#	.
.	.	.	.	16G#	.
=56	=56	=56	=56	=56	=56
iib	.	4E	4g#	16r	1cc#
.	.	.	.	16G#	.
.	.	.	.	16g#	.
.	.	.	.	16e	.
.	.	4E	4e	16r	.
.	.	.	.	16G#	.
.	.	.	.	16g#	.
.	.	.	.	16e	.
.	.	4E	4c#	16r	.
.	.	.	.	16G#	.
.	.	.	.	16g#	.
.	.	.	.	16e	.
.	.	4E	4G#	16r	.
.	.	.	.	16G#	.
.	.	.	.	16g#	.
.	.	.	.	16e	.
=57	=57	=57	=57	=57	=57
V7/vii	.	4E	4b	16r	1dd
.	.	.	.	16B	.
.	.	.	.	16g#	.
.	.	.	.	16d	.
.	.	4E	4g#	16r	.
.	.	.	.	16B	.
.	.	.	.	16g#	.
.	.	.	.	16d	.
.	.	4E	4d	16r	.
.	.	.	.	16B	.
.	.	.	.	16g#	.
.	.	.	.	16d	.
.	.	4E	4B	16r	.
.	.	.	.	16B	.
.	.	.	.	16g#	.
.	.	.	.	16d	.
=58	=58	=58	=58	=58	=58
vic	.	4D#	4b	16r	[2dd#
.	.	.	.	16B	.
.	.	.	.	16g#	.
.	.	.	.	16d#	.
.	.	4D#	4g#	16r	.
.	.	.	.	16B	.
.	.	.	.	16g#	.
.	.	.	.	16d#	.
.	.	4D#	4d#	16r	4dd#]
.	.	.	.	16B	.
.	.	.	.	16g#	.
.	.	.	.	16d#	.
.	.	4D#	4B	16r	16cc#
.	.	.	.	16B	16b
.	.	.	.	16g#	16a#
.	.	.	.	16d#	16g#
=59	=59	=59	=59	=59	=59
V/vi	.	4D#	4d#	16r	16g#
.	.	.	.	16A#	16f##
.	.	.	.	16f##	16b
.	.	.	.	16d#	16a#
.	.	4D#	2F##	16r	2.a#
.	.	.	.	16A#	.
.	.	.	.	16f##	.
.	.	.	.	16d#	.
.	.	4D#	.	16r	.
.	.	.	.	16A#	.
.	.	.	.	16f##	.
.	.	.	.	16d#	.
V7d/vi	.	4C#	4A#	16r	.
.	.	.	.	16A#	.
.	.	.	.	16f##	.
.	.	.	.	16d#	.
=60	=60	=60	=60	=60	=60
vib	.	4BB	4G#	16r	2.dd#
.	.	.	.	16G#	.
.	.	.	.	16g#	.
.	.	.	.	16d#	.
.	.	4BB	4d#	16r	.
.	.	.	.	16G#	.
.	.	.	.	16g#	.
.	.	.	.	16d#	.
V7b/ii	.	4BB#	[2g#	16r	.
.	.	.	.	16G#	.
.	.	.	.	16f#	.
.	.	.	.	16d#	.
.	.	4BB#	.	16r	8g#
.	.	.	.	16d#	.
.	.	.	.	16f#	8ff#
.	.	.	.	16d#	.
=61	=61	=61	=61	=61	=61
ii	.	4C#	4g#]	16r	8ee
.	.	.	.	16G#	.
.	.	.	.	16e	16dd#
.	.	.	.	16c#	16cc#
.	.	4C#	4e	16r	2cc#
.	.	.	.	16G#	.
.	.	.	.	16e	.
.	.	.	.	16c#	.
V7b	.	4AA#	[2f#	16r	.
.	.	.	.	16F#	.
.	.	.	.	16e	.
.	.	.	.	16c#	.
.	.	4AA#	.	16r	8f#
.	.	.	.	16c#	.
.	.	.	.	16e	8ee
.	.	.	.	16c#	.
=62	=62	=62	=62	=62	=62
I	.	4BB	4f#]	16r	8dd#
.	.	.	.	16F#	.
.	.	.	.	16d#	16cc#
.	.	.	.	16B	16b
.	.	4BB	4d#	16r	2b
.	.	.	.	16F#	.
.	.	.	.	16d#	.
.	.	.	.	16B	.
V7b/IV	.	4D#	4B	16r	.
.	.	.	.	16B	.
.	.	.	.	16f#	.
.	.	.	.	16B	.
.	.	4D#	4F#	16r	4a
.	.	.	.	16B	.
.	.	.	.	16f#	.
.	.	.	.	16B	.
=63	=63	=63	=63	=63	=63
IV	.	4E	2E	16r	4g#
.	.	.	.	16B	.
.	.	.	.	16g#	.
.	.	.	.	16e	.
.	.	4E	.	16r	2gg#
.	.	.	.	16B	.
.	.	.	.	16g#	.
.	.	.	.	16e	.
V7b/V	.	4E#	2c#	16r	.
.	.	.	.	16B	.
.	.	.	.	16g#	.
.	.	.	.	16e#	.
.	.	4E#	.	16r	4b
.	.	.	.	16B	.
.	.	.	.	16g#	.
.	.	.	.	16e#	.
=64	=64	=64	=64	=64	=64
V	.	4F#	2.c#	16r	8a#
.	.	.	.	16A#	.
.	.	.	.	16f#	16g#
.	.	.	.	16c#	16f#
.	.	4F#	.	16r	4f#
.	.	.	.	16A#	.
.	.	.	.	16f#	.
.	.	.	.	16c#	.
V7d	.	4E	.	16r	2r
.	.	.	.	16A#	.
.	.	.	.	16f#	.
.	.	.	.	16c#	.
.	.	4E	8d#	16r	.
.	.	.	.	16A#	.
.	.	.	8e	16f#	.
.	.	.	.	16c#	.
=65	=65	=65	=65	=65	=65
Ib	.	4D#	4f#	16r	2.f#
.	.	.	.	16B	.
.	.	.	.	16f#	.
.	.	.	.	16d#	.
.	.	4DD#	2BB	16f#	.
.	.	.	.	16d#	.
.	.	.	.	16e	.
.	.	.	.	16c#	.
I+b	.	4DD#	.	16d#	.
.	.	.	.	16B	.
.	.	.	.	16c#	.
.	.	.	.	16A#	.
.	.	4DD#	[4BB	16B	4f##
.	.	.	.	16c#	.
.	.	.	.	16B	.
.	.	.	.	16A	.
=66	=66	=66	=66	=66	=66
IV	.	2EE	4BB]	16G#	2.g#
.	.	.	.	16e	.
.	.	.	.	16g#	.
.	.	.	.	16e	.
IV+	.	.	4BB#	16g#	.
.	.	.	.	16e	.
.	.	.	.	16f#	.
.	.	.	.	16d#	.
ii	.	4r	[2C#	16e	.
.	.	.	.	16c#	.
.	.	.	.	16d#	.
.	.	.	.	16B#	.
II+b	.	4EE#	.	16c#	4g##
.	.	.	.	16d#	.
.	.	.	.	16c#	.
.	.	.	.	16B	.
=67	=67	=67	=67	=67	=67
V	.	2FF#	4C#]	16A#	1a#
.	.	.	.	16f#	.
.	.	.	.	16a#	.
.	.	.	.	16f#	.
V+	.	.	4C##	16a#	.
.	.	.	.	16f#	.
.	.	.	.	16g#	.
.	.	.	.	16e#	.
iii	.	4r	[2D#	16f#	.
.	.	.	.	16d#	.
.	.	.	.	16e#	.
.	.	.	.	16c##	.
Vb/vi	.	4FF##	.	16d#	.
.	.	.	.	16e#	.
.	.	.	.	16d#	.
.	.	.	.	16c#	.
=68	=68	=68	=68	=68	=68
vi	.	4GG#	4D#]	16B	1b
.	.	.	.	16d#	.
.	.	.	.	16b	.
.	.	.	.	16d#	.
IVb	.	4GG#	4BB	16r	.
.	.	.	.	16e	.
.	.	.	.	16b	.
.	.	.	.	16e	.
viiob/V	.	4GG#	4B	16r	.
.	.	.	.	16e#	.
.	.	.	.	16b	.
.	.	.	.	16e#	.
.	.	4GG#	4B	16r	.
.	.	.	.	16e#	.
.	.	.	.	16b	.
.	.	.	.	16e#	.
=69	=69	=69	=69	=69	=69
V	.	4FF#	4c#	16r	4a#
.	.	.	.	16f#	.
.	.	.	.	16a#	.
.	.	.	.	16c#	.
.	.	4FF#	4a#	16r	4ff#
.	.	.	.	16c#	.
.	.	.	.	16a#	.
.	.	.	.	16f#	.
viioD7/V	Pedal B in the bass	4FF#	4b	16r	4ee#
.	.	.	.	16d	.
.	.	.	.	16b	.
.	.	.	.	16g#	.
.	.	4FF#	4d	16r	4b
.	.	.	.	16d	.
.	.	.	.	16b	.
.	.	.	.	16g#	.
=70	=70	=70	=70	=70	=70
V	.	4FF#	4c#	16r	4a#
.	.	.	.	16c#	.
.	.	.	.	16a#	.
.	.	.	.	16f#	.
.	.	4FF#	4a#	16r	4ff#
.	.	.	.	16c#	.
.	.	.	.	16a#	.
.	.	.	.	16f#	.
viioD7/V	Pedal B in the bass	4FF#	4b	16r	4ee#
.	.	.	.	16d	.
.	.	.	.	16b	.
.	.	.	.	16g#	.
.	.	4FF#	4d	16r	4b
.	.	.	.	16d	.
.	.	.	.	16b	.
.	.	.	.	16g#	.
=71	=71	=71	=71	=71	=71
V	.	4FF#	4c#	16r	4a#
.	.	.	.	16c#	.
.	.	.	.	16a#	.
.	.	.	.	16f#	.
.	.	4FF#	4c#	16r	4cc#
.	.	.	.	16c#	.
.	.	.	.	16a#	.
.	.	.	.	16f#	.
V7	.	4FF#	4c#	16r	4ee
.	.	.	.	16c#	.
.	.	.	.	16a#	.
.	.	.	.	16f#	.
.	.	4FF#	4c#	16r	4ee
.	.	.	.	16c#	.
.	.	.	.	16a#	.
.	.	.	.	16f#	.
=72	=72	=72	=72	=72	=72
.	.	4FF#	4c#	4a#	4.ee
.	.	2.r	2.r	2.r	.
.	.	.	.	.	16ff#
.	.	.	.	.	16gg#
.	.	.	.	.	4ff#
.	.	.	.	.	4ee
=73	=73	=73	=73	=73	=73
i	.	4BB	[1B	16r	[1dd
.	.	.	.	16F#	.
.	.	.	.	16d	.
.	.	.	.	16B	.
.	.	4BB	.	16r	.
.	.	.	.	16F#	.
.	.	.	.	16d	.
.	.	.	.	16B	.
im7d	.	4AA	.	16r	.
.	.	.	.	16F#	.
.	.	.	.	16d	.
.	.	.	.	16B	.
.	.	4AA	.	16r	.
.	.	.	.	16F#	.
.	.	.	.	16d	.
.	.	.	.	16B	.
=74	=74	=74	=74	=74	=74
Gn	.	4GG	2B]	16r	2dd]
.	.	.	.	16E#	.
.	.	.	.	16d	.
.	.	.	.	16B	.
.	.	4GG	.	16r	.
.	.	.	.	16E#	.
.	.	.	.	16d	.
.	.	.	.	16B	.
.	.	4GG	4c#	16r	4cc#
.	.	.	.	16E#	.
.	.	.	.	16c#	.
.	.	.	.	16B	.
.	.	4GG	4d	16r	4b
.	.	.	.	16E#	.
.	.	.	.	16d	.
.	.	.	.	16B	.
=75	=75	=75	=75	=75	=75
Ic	.	4FF#	[1d#	16r	[3..ff#
.	.	.	.	16F#	.
.	.	.	.	16d#	.
.	.	.	.	16B	.
.	.	4FF#	.	16r	.
.	.	.	.	16F#	.
.	.	.	.	16d#	.
.	.	.	.	16B	.
.	.	4FF#	.	16r	.
.	.	.	.	16F#	.
.	.	.	.	.	24ff#]
.	.	.	.	16d#	8gg#
.	.	.	.	16B	.
.	.	4FF#	.	16r	8aa#
.	.	.	.	16F#	.
.	.	.	.	16d#	8bb
.	.	.	.	16B	.
=76	=76	=76	=76	=76	=76
Ic	.	4FF#	4d#]	16r	2f#
.	.	.	.	16d#	.
.	.	.	.	16f#	.
.	.	.	.	16B	.
.	.	4FF#	4b	16r	.
.	.	.	.	16f#	.
.	.	.	.	16b	.
.	.	.	.	16d#	.
V7	.	4FF#	4c#	16r	2cc#
.	.	.	.	16c#	.
.	.	.	.	16a#	.
.	.	.	.	16e	.
.	.	4FF#	4a#	16r	.
.	.	.	.	16c#	.
.	.	.	.	16a#	.
.	.	.	.	16e	.
=77	=77	=77	=77	=77	=77
I	.	4BB	4B	16r	[2b
.	.	.	.	16d#	.
.	.	.	.	16b	.
.	.	.	.	16f#	.
V+7b/IV	.	4D#	4a	16r	.
.	.	.	.	16B	.
.	.	.	.	16a	.
.	.	.	.	16f##	.
IV	.	4E	4g#	4g#	16b]
.	.	.	.	.	16ff##
.	.	.	.	.	16gg#
.	.	.	.	.	16ee
V7	.	4F#	8r	8r	16dd#
.	.	.	.	.	16cc#
.	.	.	8e	8e	16b
.	.	.	.	.	16a#
=78	=78	=78	=78	=78	=78
I	.	4BB	4d#	16r	[2b
.	.	.	.	16d#	.
.	.	.	.	16b	.
.	.	.	.	16f#	.
V+7b/IV	.	4DD#	4a	16r	.
.	.	.	.	16B	.
.	.	.	.	16a	.
.	.	.	.	16f##	.
IV	.	4EE	4g#	4g#	16b]
.	.	.	.	.	16f##
.	.	.	.	.	16g#
.	.	.	.	.	16e
V7	.	4FF#	8r	8r	16d#
.	.	.	.	.	16c#
.	.	.	8C#	8E	16B
.	.	.	.	.	16A#
=79	=79	=79	=79	=79	=79
viio	Pedal E in the bass	[2BBB	2C#	2E	2A#
I	.	4BBB]	4BB	4D#	4B
.	.	4r	4r	4r	4r
==	==	==	==	==	==
*-	*-	*-	*-	*-	*-
!!!RWG1: This file contains only pitch and duration data.
!!!RWG2: Transposing instruments are not transposed.
!!!RWG3: Spines may have incompatible meters.
!!!RWG4: Durations of rests and tied notes may be interpreted.
!!!RWG: Key is interpreted using the Humdrum key tool.
!!!GTL: 6 Divertimentos ("Sun")
!!!AFT: stage1
!!!END: 1997/04/15
!!!KEY: 1906484277
!!!EMD: Converted from MuseData to Humdrum Dec 16, 2000, by Andreas Kornstaedt using muse2kern.
!!!EMD: Manual editing by Craig Sapp, Nov 2001
!!!EMD: Changing fourth beat of mm.5 to match the Altmann Edition, Nestor Napoles, June 2017
